**kern
*staff1
*tb8
=1-
*clefG2
*met(c)
*M4/4
4ee\
.
4dd\
.
4cc\
.
4b\
.
=2
4cc\
.
8b\
8a/
4g/
.
4a/
.
=3
4cc\
.
4b\
.
4dd\
.
4cc\
.
=4
!!linebreak:original
(2ee\
.
.
.
4dd\)
.
4r
.
=5
4ff\
.
4ee\
.
4dd\
.
4cc\
.
=6
(4cc\
.
2b\)
.
.
.
8a/
8g/
=7:|!
!!linebreak:original
=
8g/
8f#/
8g/
8a/
4.b\
.
.
8a/
=8
4g/
.
4r
.
4r
.
8b\
8cc\
=9
(2dd\
.
.
.
4b\)
.
8cc\L
8a\J
=10
!!linebreak:original
1g/
.
.
.
.
.
.
.
=11
(4.ee\
.
.
8cc\)
4g/
.
4r
.
=12
(4.ee-\
.
.
8cc\)
2g/
.
.
.
=13
4ee-\
.
8dd\L
8cc\J
(4b\
.
8cc\)
8dd\
=14
!!linebreak:original
4cc\
.
4r
.
8cc\
8cc\
8b-\
8a-/
=15
4a-/
.
4g/
.
4.cc\
.
.
8a-/
=16
4a-/
.
4g/
.
4g/
.
4g/
.
=17
!!linebreak:original
1cc'/
.
.
.
.
.
.
.
=18
8cc\L
8b\J
8ff\L
8ee\J
8ee\L
8dd\J
8cc\L
8b\J
=19
4cc\
.
4r
.
4r
.
8cc/L
8f/J
=20
!!linebreak:original
(2e/
.
.
.
4d/
.
8f/L
8e/J)
=21
4c/
.
4r
.
2r
.
.
.
=22
1r
.
.
.
.
.
.
.
=23
!!linebreak:original
*k[b-e-a-]
*met(c)
*M4/4
1r
.
.
.
.
.
.
.
=24
2r
.
.
.
4r
.
8b-\
8b-\
=25
4b-\
.
8cc\
8dd\
8ff\L
8ee-\J
8dd\L
8cc\J
=26
!!linebreak:original
(4b-\
.
4a-/)
.
4r
.
8b-\L
8cc\J
=27
4.cc\
.
.
8f/
4f/
.
8g/L
8a-/J
=28
4d/
.
4r
.
8r
8d/
8e-/
8f/
=29
!!linebreak:original
8g/L
8a-/J
4b-\
.
8b-\L
8bn\J
8cc\L
8dd\J
=30
(4ff\
.
4ee-\)
.
4r
.
8dd\L
8cc\J
=31
4b-\
.
8an/L
8g/J
4b-\
.
8a/L
8g/J
=32
!!linebreak:original
4an/
.
4r
.
4r
.
4d/
.
=33
4bn\
.
4g/
.
4dd\
.
4g/
.
=34
([2ee-\
.
.
.
8ee-\L]
8dd-\J)
8cc\L
8b-\J
=35
!!linebreak:original
(4bn\
.
4cc\)
.
4r
.
8cc\L
8b-\J
=36
8a-/L
8f/J
8cc\L
8a-\J
4.ff\
.
.
8ee-\
=37
4dd\
.
4r
.
4r
.
4b-\
.
=38
!!linebreak:original
(8ee-\L
8ff\
8gg\
8dd\J
8ff\L
8ee-\J)
8dd\L
8cc\J
=39
(8b-/L
8a-/
8g/
8a-/J
8dd\L
8cc\J)
8b-/L
8a-/J
=40
4g/
.
4r
.
4r
.
4b-\
.
=41
4.ee-\
.
.
8e-/
8e-/L
8g/J
8b-\L
8ee-\J
=42
!!linebreak:original
4.ee-\
.
.
8e-/
8e-/L
8g-/J
8b-\L
8ee-\J
=43
4.ee-\
.
.
8ff\
4gg-\
.
4an/
.
=44
4b-\
.
4r
.
4r
.
4b-\
.
=45
!!linebreak:original
(8b-\
4gg\
.
4ff\
.
4ee-\
.
[8dd\)
=46
8dd\]
4cc\
.
4b-\
.
4a-/
.
[8g/
=47
8g/L]
8en/
8f/
8g/J
8a-/L
8b-'/J
8bn\L
8cc\J
=48
2.e-/
.
.
.
.
.
8g/L
8f/J
=49
!!linebreak:original
4e-/
.
4r
.
2r
.
.
.
=50
2r
.
.
.
(4.cc\
.
.
8b-\)
=51
8b-\
8b-\
8cc\
8dd\
8ff\L
8ee-\J
8dd\L
8cc\J
=52
!!linebreak:original
(4b-\
.
4a-/)
.
4r
.
8b-\L
8cc\J
=53
4.cc\
.
.
8f/
4f/
.
8g/L
8a-/J
=54
4d/
.
8r
8d/
4e-/
.
4f/
.
=55
!!linebreak:original
8g/
8a-/
(4b-\
.
8b-\L
8bn\J)
8cc\L
8dd\J
=56
(4ff\
.
4ee-\)
.
4r
.
8dd\L
8cc\J
=57
4b-\
.
8an/L
8g/J
4b-\
.
(8a/L
8g/J)
=58
!!linebreak:original
4an/
.
4r
.
4r
.
4d/
.
=59
4bn\
.
4g/
.
4dd\
.
4g/
.
=60
([2ee-\
.
.
.
8ee-\L]
8dd-\J)
8cc\L
8b-\J
=61
!!linebreak:original
(4bn\
.
4cc\)
.
4r
.
8cc\L
8b-\J
=62
8a-/L
8f/J
8cc\L
8a-\J
4ff\
.
4ee-\
.
=63
(4ee-\
.
4dd\)
.
4r
.
4b-\
.
=64
!!linebreak:original
(8ee-\L
8ff\
8gg\
8dd\J
8ff\L
8ee-\J)
8dd\L
8cc\J
=65
(8b-/L
8a-/
8g/
8a-/J
8dd\L
8cc\J)
8b-/L
8a-/J
=66
4g/
.
4r
.
4r
.
4b-\
.
=67
4.ee-\
.
.
8e-/
8e-/L
8g/J
8b-\L
8ee-\J
=68
!!linebreak:original
4.ee-\
.
.
8e-/
8e-/L
8g-/J
8b-\L
8ee-\J
=69
4.ee-\
.
.
8ff\
4gg-\
.
4an/
.
=70
4b-\
.
4r
.
4r
.
4b-\
.
=71
!!linebreak:original
(8b-\
4gg\
.
4ff\
.
4ee-\)
.
8dd\
=72
8dd\
4cc\
.
4b-\
.
4a-/
.
8g/
=73
8g/L
8en/
8f/
8g/J
8a-/L
8b-/J
8bn\L
8cc\J
=74
2.e-/
.
.
.
.
.
8g/L
8f/J
=75
4e-/
.
4r
.
2r
.
.
.
==
*-
